X:1
T:Thou Knowest, Lord, the Secrets of Our Hearts
T:Thou Knowest, Lord, the Secrets of Our Hearts
T:fra Funeral Music for Queen Mary, Z 860
T:Henry Purcell
C:Henry Purcell
%%score [ 1 2 3 4 ]
L:1/8
M:4/2
K:Bb
V:1 treble nm="Soprano"
V:2 treble nm="Alto"
V:3 treble-8 nm="Tenor"
V:4 bass nm="Bass"
V:1
 z4 G4 G4 G4 | F4 F4 G2 A2 B4 | B4 A4 B8 | z4 d8 d4 | z4 c8 c2 c2 | c2 c2 (c2 d2) B4 d4 | %6
w: Thou know- est,|Lord, the se- * crets|of our hearts;|Shut not,|shut not thy|mer- ci- ful _ ears un-|
 G6 A2 ^F8 | z4 A4 B6 B2 | B4 z4 A6 A2 | B4 G4 A4 A4 | z4 d4 _d8 | z4 f4 d6 ^c2 | d4 d4 z4 d4 | %13
w: to our pray'rs;|but spare us,|Lord, spare us,|Lord most ho- ly,|O God,|O God most|might- y, O|
 e6 e2 e4 d4 | c4 d2 e2 =B4 B4 | z4 =B2 B2 c4 c4 | c6 =B2 c4 c4 | z4 A6 A2 A4 | B8 z4 =B6 B2 B4 | %19
w: ho- ly and most|mer- ci- ful Sa- viour,|Thou most worth- y|judge e- ter- nal,|suf- fer us|not, suf- fer us|
 c4 c2 _B2 (A4 G4) | ^F4 B4 c4 d4 | A4 B4 ^F4 B4 | c4 d4 (d2 A2) B4 | ^F4 B4 A4 G4 | G4 ^F4 G8 | %25
w: not at our last _|hour for a- ny|pains of death, for|a- ny pains _ of|death, to fall, to|fall from Thee.|
 z4 E4 D16 |] %26
w: A- men.|
V:2
 z4 E4 E4 E4 | D4 D4 E2 E2 F4 | G4 F4 F8 | z4 F8 F4 | z4 F8 F2 F2 | D2 D2 D4 D4 D4 | D4 C4 D8 | %7
w: Thou know- est,|Lord, the se- * crets|of our hearts;|Shut not,|shut not thy|mer- ci- ful ears un-|to our pray'rs;|
 z4 ^F4 G6 G2 | G4 z4 =F6 F2 | F4 =E4 F4 F4 | z4 A4 A8 | z4 A4 A6 A2 | A4 A4 z4 G4 | G6 G2 G4 G4 | %14
w: but spare us,|Lord, spare us,|Lord most ho- ly,|O God,|O God most|might- y, O|ho- ly and most|
 G2 G2 F4 G4 G4 | z4 G2 G2 G4 G4 | G6 F2 =E4 E4 | z4 F6 F2 F4 | F8 z4 F6 F2 F4 | G4 G2 F2 E8 | %20
w: mer- ci- ful Sa- viour,|Thou most worth- y|judge e- ter- nal,|suf- fer us|not, suf- fer us|not at our last|
 D4 G4 A4 B4 | ^F4 G4 D4 G4 | A4 B4 ^F4 G4 | D4 =F4 E4 D4 | C4 D4 =B,8 | z4 C4 =B,16 |] %26
w: hour for a- ny|pains of death, for|a- ny pains of|death, to fall, to|fall from Thee.|A- men.|
V:3
 z4 B4 B4 B4 | B4 B4 c4 d4 | e4 c4 d8 | z4 B8 B4 | z4 A8 A2 A2 | A2 A2 A4 G4 A4 | B4 G4 A8 | %7
w: Thou know- est,|Lord, the se- crets|of our hearts;|Shut not,|shut not thy|mer- ci- ful ears un-|to our pray'rs;|
 z4 d4 d6 d2 | c4 z4 c6 c2 | d4 c4 c4 c4 | z4 f4 =e8 | z4 d4 =e6 e2 | f4 f4 z4 d4 | c6 c2 c4 d4 | %14
w: but spare us,|Lord, spare us,|Lord most ho- ly,|O God,|O God most|might- y, O|ho- ly and most|
 _e4 d2 c2 d4 d4 | z4 e2 d2 e4 e4 | d6 d2 c4 c4 | z4 c6 c2 c4 | d8 z4 d6 d2 d4 | e4 e2 d2 (c4 B4) | %20
w: mer- ci- ful Sa- viour,|Thou most worth- y|judge e- ter- nal,|suf- fer us|not, suf- fer us|not at our last _|
 A8 z8 | z4 B4 c4 d4 | A4 d4 c4 B4 | A4 d4 A4 B4 | c4 A4 G8 | z4 G4 G16 |] %26
w: hour|for a- ny|pains of death, of|death, to fall, to|fall from Thee.|A- men.|
V:4
 z4 E,4 E,4 E,4 | B,,4 B,,4 E,4 D,4 | C,4 F,4 B,,8 | z4 B,8 B,4 | z4 F,8 F,2 F,2 | %5
w: Thou know- est,|Lord, the se- crets|of our hearts;|Shut not,|shut not thy|
 ^F,2 F,2 F,4 G,4 =F,4 | E,6 E,2 D,8 | z4 D,4 G,6 G,2 | =E,4 z4 F,6 F,2 | B,,4 C,4 F,4 F,4 | %10
w: mer- ci- ful ears un-|to our pray'rs;|but spare us,|Lord, spare us,|Lord most ho- ly,|
 z4 D,4 A,8 | z4 D4 A,6 A,2 | D,4 D,4 z4 =B,4 | C6 C2 C4 _B,4 | _A,4 A,2 A,2 G,4 G,4 | %15
w: O God,|O God most|might- y, O|ho- ly and most|mer- ci- ful Sa- viour,|
 z4 G,2 F,2 E,4 C,4 | G,,6 G,,2 C,4 C,4 | z4 F,6 F,2 E,4 | D,8 z4 D,6 D,2 D,4 | %19
w: Thou most worth- y|judge e- ter- nal,|suf- fer us|not, suf- fer us|
 C,4 C,2 D,2 (z4 C,4) | D,8 z8 | z4 G,4 A,4 B,4 | ^F,4 G,4 D,8- | D,4 D,4 C,4 B,,4 | %24
w: not at our *|hour|for a- ny|pains of death,|_ to fall, to|
 A,,4 D,4 G,,8 | z4 C,4 G,,16 |] %26
w: fall from Thee.|A- men.|

